X:277
T: Wenn alle Wsserlein flieáen (3-79), S. 219
N: P1052
O: Lothringen
S: PINCK, Louis: Verklingende Weisen, Bd3, Metz 1933]
R: Liebe, allgemein]
M: 4/4
L: 1/8
K: G
D2 | G3DB,B,D2 | G4G2
B2 | A2G2A2c2 | B4z2
D2 | G2B2d2e2 | d3Bd2z2
c2A2F4 | c3dB2
G2 | FFG2A4 | G4z2

